icons/1_Primary/Fastmail.svg

<svg width="1024" height="1024" fill="none" xmlns="http://www.w3.org/2000/svg"><g clip-path="url(#a)"><path d="M512 1024c282.77 0 512-229.23 512-512S794.77 0 512 0 0 229.23 0 512s229.23 512 512 512Z" fill="#728DBE"/><path d="M743.55 359.1C693.88 284 608.74 234.5 512 234.5c-153.26 0-277.5 124.24-277.5 277.5a277.434 277.434 0 0 0 171.296 256.393A277.434 277.434 0 0 0 512 789.5c153.26 0 277.5-124.24 277.5-277.5a276.132 276.132 0 0 0-45.95-152.9ZM512 731.17a219.105 219.105 0 0 1-154.991-64.179A219.121 219.121 0 0 1 292.83 512c0-121 98.17-219.17 219.17-219.17A219.223 219.223 0 0 1 731.17 512c0 121-98.17 219.17-219.17 219.17ZM512 512l-131.92-87.95v175.9h254.56a9.277 9.277 0 0 0 6.565-2.715 9.276 9.276 0 0 0 2.715-6.565V424.05L512 512Z" fill="#fff"/></g><defs><clipPath id="a"><path fill="#fff" d="M0 0h1024v1024H0z"/></clipPath></defs></svg>

<svg width="1024" height="1024" viewBox="0 0 1024 1024" fill="none" xmlns="http://www.w3.org/2000/svg">
<g clip-path="url(#clip0_2_2169)">
<path d="M512 1024C794.77 1024 1024 794.77 1024 512C1024 229.23 794.77 0 512 0C229.23 0 0 229.23 0 512C0 794.77 229.23 1024 512 1024Z" fill="#728DBE"/>
<path d="M743.55 359.1C693.88 284 608.74 234.5 512 234.5C358.74 234.5 234.5 358.74 234.5 512C234.492 548.444 241.664 584.533 255.607 618.204C269.55 651.875 289.99 682.47 315.76 708.24C341.53 734.01 372.125 754.45 405.796 768.393C439.467 782.336 475.556 789.508 512 789.5C665.26 789.5 789.5 665.26 789.5 512C789.573 457.621 773.588 404.43 743.55 359.1ZM512 731.17C483.216 731.177 454.713 725.512 428.12 714.5C401.526 703.488 377.362 687.344 357.009 666.991C336.656 646.638 320.512 622.474 309.5 595.88C298.488 569.287 292.823 540.784 292.83 512C292.83 391 391 292.83 512 292.83C570.123 292.843 625.862 315.939 666.962 357.038C708.061 398.138 731.157 453.877 731.17 512C731.17 633 633 731.17 512 731.17ZM512 512L380.08 424.05V599.95H634.64C635.859 599.951 637.066 599.712 638.193 599.246C639.319 598.78 640.343 598.097 641.205 597.235C642.067 596.373 642.75 595.349 643.216 594.223C643.682 593.096 643.921 591.889 643.92 590.67V424.05L512 512Z" fill="white"/>
</g>
<defs>
<clipPath id="clip0_2_2169">
<rect width="1024" height="1024" fill="white"/>
</clipPath>
</defs>
</svg>
